X:1
T:Se per voi
T:Se per voi
T:Gio.Girolamo Kapsperger
C:Gio.Girolamo Kapsperger
%%score [ 1 2 3 ] { ( 4 6 ) | 5 }
L:1/8
Q:1/4=120
M:4/4
K:F
V:1 treble nm="Soprano 1" snm="S 1"
V:2 treble nm="Soprano 2" snm="S 2"
V:3 bass nm="Bass" snm="B"
V:4 treble nm="BC" snm="BC"
V:6 treble 
V:5 bass 
V:1
 z2 Bc dcBA | B4 B2 _e2- | e2 d2 c4 | B6 f_e | dcBA G3 A | =B2 c2 d4 | c8 :: d2 e2 f2 c2 | %8
w: Se per voi s'ar- d'e si|mo- re, Fil-|* l'in- gra-|ta, que- sta|vi- ta'e que- sto co- re|dis- pie- ta-|ta,|per- che ne- ghi'al-|
w: Per- che fug- gi'e sei ru-|bel- la, di|_ sen- ti-|re, que- sta|mia fog- gia no- vel- la|di mar- ti-|re,|e poi cer- ch'in|
w: Co- si don- que- il mio|spe- ran, la|_ ra- pi-|ne, e mie|lon- ge pe- ne'a- ma- re|non han fi-|ne,|que- sto'e se- gn'o|
 c2 d2 _e3 f | d2 B2 A4 | G8 :| %11
w: la mia vi- ta|dar a- i-|ta.|
w: o- gni lo- co|dar mi fo-|co.|
w: mio tre- so- ro|ch'io mi mo-|ro.|
V:2
 z2 dc Bcdd | G6 G2 | A3 B (B2 A2) | B4 f_edc | G2 A2 B2 c2 | d3 c (c2 =B2) | c8 :: B2 c2 d2 A2 | %8
w: Se per voi s'ar- d'e si|mo- re,|Fil- l'in- gra- *|ta, que- sta vi- ta'e|que- sto co- re|dis- pie- ta- *|ta.|per che ne- ghi'al-|
w: Per- che fug- gi'e sei ru-|bel- la,|di sen- ti- *|re, que- sta mia fog-|gia no- vel- la|di mar- ti- *|re,|e poi cer- ch'in|
w: Co- si don- que il mio|spe- ran,|la ra- pi- *|ne, e mie lon- ge|pe- ne'a- ma- re|non han fi- *|ne,|que- sto'e se- gn'o|
 A2 B2 c3 d | B3 G G2 ^F2 | G8 :| %11
w: la mia vi- ta|dar a- i- *|ta.|
w: o- gni lo- co|dar mi fo- *|co.|
w: mio tre- so- ro|ch'io mi mo- *|ro.|
V:3
 z2 G,A, B,A,G,F, | _E,3 E, E,2 C,2 | F,8 | B,,6 B,C | B,A,G,F, _E,3 D,/C,/ | =B,,2 A,,2 G,,4 | %6
w: Se per voi s'ar- d'e si|mo- re, fil- l'in-|gra-|ta, que- sta|vi- ta'e que- sto co- re _|dis- pie- ta-|
w: Per che fug- gi'e sei ru-|bel- la, di sen-|ti-|re, que- sta|mia fog- gia no- vel- la _|di mar- ti-|
w: Co- si don- que il mio|spe- ran, la ra-|pi-|ne, e mie|lon- ge pe- ne'a- ma- re _|non han fi-|
 C,8 :: B,2 A,G, F,2 F,2 | F,2 _E,D, C,3 A,, | B,,2 G,,2 D,4 | G,,8 :| %11
w: ta,|per che _ ne- ghi'al-|la mia _ vi- ta|dar a- i-|ta.|
w: re,|e poi- _ cer- ch'in|o- gni _ lo- co|dar mi fo-|co.|
w: ne,|que- sto'e- * se- gn'o|mio tre- * so- ro|ch'io mi mo-|ro.|
V:4
 [GBd]8 | [GB]6 G2 | [Ac]8 | [DFB]8 | [Fd]4 [GB]2 [CA]2 | [DG=B]2 [Ac]2 [Gc]2 [DB]2 | [EGc]8 :: %7
 [Fd]4 [FA]4 | [Ac]2 [Bd]2 [c_e]3 [df] | d2 B2 d4 | [DG=B]8 :| %11
V:5
 G,3 A, B,A,G,F, | _E,6 C,2 | F,8 | B,,8 | B,,4 _E,2 F,2 | G,4 G,,4 | C,8 :: B,2 A,G, F,4- | %8
 F,2 _E,D, C,3 A,, | B,,2 G,,2 [D,A,]4 | [G,,G,]8 :| %11
V:6
 x8 | x8 | x8 | x8 | x8 | x8 | x8 :: x8 | x8 | G2 FE G2 ^F2 | x8 :| %11

